X:1
T:Title
%%score { 1 | ( 2 3 ) }
L:1/8
M:4/4
K:G
V:1 treble nm="Grand Piano"
V:2 bass 
V:3 bass 
V:1
 z4 z2[Q:1/4=110] D2 | G2 G2 GA[GB]c | [Bd]2 [Bd]>e [Bd]2 [B,GB]2 | [FA]2 [FA]2 [FA]2 [EG]A | %4
[M:3/4] [DGB]2 [DFA]4 |[M:1/4] D2 |[M:4/4] G2 G2 GA[GB]c | [Bd]2 [Bd]>e [Bd]2 [B,GB]2 | %8
 [EFA]2 [DFA]2 [Fd]2 F2 |[M:3/4] A2 G4 |[M:1/4] D2 |[M:4/4] G2 G2 GA[GB]c | %12
 [Bd]2 [Bd]>e [Bd]2 [B,GB]2 | [FA]2 [FA]2 [FA]2 [EG]A |[M:3/4] [DGB]2 [DFA]4 |[M:1/4] D2 | %16
[M:4/4] G2 G2 GA[GB]c | [Bd]2 [Bd]>e [Bd]2 [B,GB]2 | [EFA]2 [DFA]2 [Fd]2 F2 |[M:3/4] A2 G4 | %20
[M:4/4] [Ec]2 [Ec]>[Ec] [Ec]4 | B2 B>B [Bd]4 | [Gc]2 [Ge]>[Ge] [DBd]2 [DGB]2 | %23
[M:3/4] [DGB]2 [DFA]4 |[M:1/4] D2 |[M:4/4] G2 G2 GA[GB]c | [Bd]2 [Bd]>e [Bd]2 [B,GB]2 | %27
 [EFA]2 [DFA]2 [Fd]2 F2 |[M:7/4] A2 G4 z2 z2 z4 |] %29
V:2
 z4 z2 D,2 | [G,B,D]2 [G,B,D]2 [G,D]-[G,A,D] z[K:treble] A | G,2 z z/ c/ G,2[K:bass] G,2 | %3
 [D,D]2 [D,D]2 [D,D]2 z F |[M:3/4] D,2 D,4 |[M:1/4] D,2 | %6
[M:4/4] [G,B,D]2 [G,B,D]2 [G,D]-[G,A,D] z[K:treble] A | G,2 z z/ c/ G,2[K:bass] G,2 | %8
 D,2 D,2 [D,A,]2 [D,A,D]2 |[M:3/4] [D,CD]2 [G,B,D]4 |[M:1/4] D,2 | %11
[M:4/4] [G,B,D]2 [G,B,D]2 [G,D]-[G,A,D] z[K:treble] A | G,2 z z/ c/ G,2[K:bass] G,2 | %13
 [D,D]2 [D,D]2 [D,D]2 z F |[M:3/4] D,2 D,4 |[M:1/4] D,2 | %16
[M:4/4] [G,B,D]2 [G,B,D]2 [G,D]-[G,A,D] z[K:treble] A | G,2 z z/ c/ G,2[K:bass] G,2 | %18
 D,2 D,2 [D,A,]2 [D,A,D]2 |[M:3/4] [D,CD]2 [G,B,D]4 |[M:4/4] [C,G,]2 [C,G,]>[C,G,] [C,G,]4 | %21
 [G,D]2 [G,G]>[G,G][K:bass] G,4 | [E,G,]2 [C,C]>[C,C] G,,2 B,,2 |[M:3/4] D,2 D,4 |[M:1/4] D,2 | %25
[M:4/4] [G,B,D]2 [G,B,D]2 [G,D]-[G,A,D] z[K:treble] A | G,2 z z/ c/ G,2[K:bass] G,2 | %27
 D,2 D,2 [D,A,]2 [D,A,D]2 |[M:7/4] [D,CD]2 [G,B,D]4 z2 z2 z4 |] %29
V:3
 x8 | z4 .B,2 G,2[K:treble] | z2 G,2 z4[K:bass] | z4 z2 [D,D]2 |[M:3/4] x6 |[M:1/4] x2 | %6
[M:4/4] z4 .B,2 G,2[K:treble] | z2 G,2 z4[K:bass] | x8 |[M:3/4] x6 |[M:1/4] x2 | %11
[M:4/4] z4 .B,2 G,2[K:treble] | z2 G,2 z4[K:bass] | z4 z2 [D,D]2 |[M:3/4] x6 |[M:1/4] x2 | %16
[M:4/4] z4 .B,2 G,2[K:treble] | z2 G,2 z4[K:bass] | x8 |[M:3/4] x6 |[M:4/4] x8 | x4[K:bass] x4 | %22
 x8 |[M:3/4] x6 |[M:1/4] x2 |[M:4/4] z4 .B,2 G,2[K:treble] | z2 G,2 z4[K:bass] | x8 |[M:7/4] x14 |] %29

